img/svg/16/os/crunchbang.svg

<svg xmlns="http://www.w3.org/2000/svg" viewBox="0 0 16 16" enable-background="new 0 0 16 16"><path d="M11 1h-2l-.571 4h-3l.571-4h-2l-.571 4h-2.429v2h2.143l-.286 2h-1.857v2h1.571l-.571 4h2l.571-4h3l-.571 4h2l.571-4h2.429v-2h-2.143l.286-2h1.857v-2h-1.571l.571-4zm-3.143 8h-3l.286-2h3l-.286 2zM13 1h2v11h-2zM13 13h2v2h-2z" fill="#ccc"/></svg>

<svg xmlns="http://www.w3.org/2000/svg" viewBox="0 0 16 16"><path fill="#ccc" d="M11 1H9l-.571 4h-3L6 1H4l-.571 4H1v2h2.143l-.286 2H1v2h1.571L2 15h2l.571-4h3L7 15h2l.571-4H12V9H9.857l.286-2H12V5h-1.571L11 1zM7.857 9h-3l.286-2h3l-.286 2zM13 1h2v11h-2zm0 12h2v2h-2z"/></svg>
